X: 0
T: The Boar's Head Carol
Z: English Traditional
Z: Copyright © 2006 by Douglas D. Anderson
Z: Released To The Public Domain
L: 1/4
M: 4/4
Q: 1/4=360
V: P1 name="Solo Voice"
%%MIDI program 1 60
V: P2 name="Voice 2"
%%MIDI program 2 57
V: P3 name="Voice 3"
%%MIDI program 3 58
V: P4 name="PianoForte"
%%MIDI program 4 0
V: P5 name="Piano Forte"
%%MIDI program 5 0
K: C
[V: P1]  G2 | c4 | c3 c | B2 c2 | G3 E | F2 F2 | A3 F | G3 G | c2 G G | c2 c c | c2 c2 | B2 c2 | G3 E | F2 F2 | A3 F | G3 G | c4 |"^Chorus" c3 c | B2 B2 | c2 c2 | G4 | F2 F2 | A3 F | G3 G | c4 |"^2nd Verse" G2 | c4 | c2 c c | B2 c2 | G2 E E | F2 F2 | A3 F | G3 G | c2 G2 | c3 c | c2 c c | B2 c2 | G3 E | F2 F2 | A3 F | G3 G | c4 |"^3rd Verse" G2 | c2 c2 | c3 c | B2 c2 | G3 E | F2 F2 | A3 F | G2 G2 | c2 G2 | c2 c2 | c2 c c | B2 c2 | G3 E | F2 F2 | A3 F | G3 G | c4|]
w: The boar’s head in hand bear I, Be- deck'd with bays and rose- ma ry. And I pray you, my mas- ters, be mer- ry Quot es- tis in con- vi vi o Ca- put a- pri de- fe ro Red- dens lau- des Do- mi no The boar's head, as I un- der stand, Is the brav- est dish in all the land; When thus be- deck'd with a gay gar- land, Let us ser- vi re can- ti co. Our stew- ard hath pro- vid ed this In hon- our of the King of Bliss; Which on this day to be serv- ed is In Re- gi men si A- tri o.
[V: P2] z2 | z4 | z4 | z4 | z4 | z4 | z4 | z4 | z4 | z4 | z4 | z4 | z4 | z4 | z4 | z4 | z4 | E3 E | D2 D2 | E2 C2 | B,4 | C2 C2 | C3 C | (B, D) (G F) | E4|]
[V: P3] z2 | z4 | z4 | z4 | z4 | z4 | z4 | z4 | z4 | z4 | z4 | z4 | z4 | z4 | z4 | z4 | z4 | C,3 C, | G,,2 G,,2 | C,2 E,2 | G,4 | A,2 A,2 | F,3 A, | G,3 G, | C,4 | z4 | z4 | z4 | z4 | z4 | z4 | z4 | z4 | z4 | z4 | z4 | z4 | z4 | z4 | z4 | z4 | z4 | z4 | z4 | z4 | z4 | z4 | z4 | z4 | z4 | z4 | z4 | z4 | z4 | z4 | z4 | z4 | z4|]
[V: P4]  [E2G2] | [E4c4] | [E3c3] [Ec] | [F2B2] [E2c2] | [D3G3] [CE] | [C2F2] [C2F2] | [C3A3] [CF] | [C3D3G3] [B,DG] | [C2E2] [C2E2] | [E4c4] | [E2c2] [E2c2] | [F2B2] [E2c2] | [D3G3] [CE] | [C2F2] [C2F2] | [C3A3] [CF] | [C3D3G3] [B,DG] | [C4E4c4] | [E3c3] [Ec] | [D2B2] [D2B2] | [E2c2] [C2c2] | [B,4D4G4] | [C2F2] [C2F2] | [C3A3] [CF] | [B,G] [DG] G [FG] | [E4c4] | [E2G2] | [E4c4] | [E3c3] [Ec] | [F2B2] [E2c2] | [D3G3] [CE] | [C2F2] [C2F2] | [C3A3] [CF] | [C3D3G3] [B,DG] | [C2E2] [C2E2] | [E4c4] | [E2c2] [E2c2] | [F2B2] [E2c2] | [D3G3] [CE] | [C2F2] [C2F2] | [C3A3] [CF] | [C3D3G3] [B,DG] | [C4E4c4] | [E2G2] | [E4c4] | [E3c3] [Ec] | [F2B2] [E2c2] | [D3G3] [CE] | [C2F2] [C2F2] | [C3A3] [CF] | [C3D3G3] [B,DG] | [C2E2] [C2E2] | [E4c4] | [E2c2] [E2c2] | [F2B2] [E2c2] | [D3G3] [CE] | [C2F2] [C2F2] | [C3A3] [CF] | [C3D3G3] [B,DG] | [C4E4c4]|]
[V: P5]  [C,2G,2] | [C,4G,4] | [C,3G,3] [C,G,] | [D,2G,2] [D,2G,2] | [D,3G,3] [_B,,G,] | [A,,2F,2] [A,,2F,2] | [F,,3F,3] [A,,F,] | [G,,2D,2] G,2 | [C,2G,2] [C,2G,2] | [C,4G,4] | [C,2G,2] [C,2G,2] | [D,2G,2] [C,2G,2] | [B,,3G,3] [_B,,G,] | [A,,2F,2] [A,,2F,2] | [F,,3F,3] [A,,F,] | [G,,2D,2] G,2 | [C,4G,4] | [C,3G,3] [C,G,] | [G,,2G,2] [G,,2G,2] | [C,2G,2] [E,2G,2] | G,4 | [A,,2F,2] [A,,2F,2] | [F,,3F,3] [A,,F,] | [G,,2D,2] G,2 | G,4 | [C,2G,2] | [C,4G,4] | [C,3G,3] [C,G,] | [D,2G,2] [D,2G,2] | [D,3G,3] [_B,,G,] | [A,,2F,2] [A,,2F,2] | [F,,3F,3] [A,,F,] | [G,,2D,2] G,2 | [C,2G,2] [C,2G,2] | [C,4G,4] | [C,2G,2] [C,2G,2] | [D,2G,2] [C,2G,2] | [B,,3G,3] [_B,,G,] | [A,,2F,2] [A,,2F,2] | [F,,3F,3] [A,,F,] | [G,,2D,2] G,2 | [C,4G,4] | [C,2G,2] | [C,4G,4] | [C,3G,3] [C,G,] | [D,2G,2] [D,2G,2] | [D,3G,3] [_B,,G,] | [A,,2F,2] [A,,2F,2] | [F,,3F,3] [A,,F,] | [G,,2D,2] G,2 | [C,2G,2] [C,2G,2] | [C,4G,4] | [C,2G,2] [C,2G,2] | [D,2G,2] [C,2G,2] | [B,,3G,3] [_B,,G,] | [A,,2F,2] [A,,2F,2] | [F,,3F,3] [A,,F,] | [G,,2D,2] G,2 | [C,4G,4]|]

